src/components/assets/cryptokeeper_coin_binance.svg

<svg xmlns="http://www.w3.org/2000/svg" xmlns:xlink="http://www.w3.org/1999/xlink" preserveAspectRatio="none" width="563" height="563"><defs><path fill="#FCFCFB" d="M129.1-130.95q-19-26.95-46.7-65.55-27.75-38.65-48.95-47.25-21.2-8.6-37.95-11.9-16.8-3.35-37.35 10-6.8 4.4-15.1 10.95-4.4 3.5-10.4 8.35-5.6 4.3-36.95 37.55-36.7 38.95-36.95 39.2-5.85 5.85-17.15 33.3-5.6 13.7-10.1 26.25-8.8 21.8 2.15 64.1 3.9 15.05 9.55 29.6 4.75 12.2 7.65 16.75 4.05 6.3 7.1 4.45.95-.55 1.7-1.85l.55-1.2-.15 2.8q-1.1 3.45-5.6 6.55-6.9 4.8-10.05 11.1-4.3 8.65-1.4 19.75 1.95 7.45 3.25 10.65 2 4.7 5.2 7.65 6.65 6.15 26.7 9.65 17.95 3.15 43.75-2.75 8.1-1.85 15.95-4.4l6.3-2.15-2.9 2.95q-4.35 3.4-11.2 6.35-6.9 2.9-31.1 15.1l8.2 5.25-.3 7.65 15.75-8.6-7.15 15.05q19.8-3.25 22.95 10.05l9.3-17.2v19.35l18.65 6.45 9.35-21.5 1.45 21.5q14.35-11.2 30.65-.15l8.05-21.35 2.9 20.8 22.95-4.3 2.15-21.55L51 135.9l15.1-7.2-2.9-18.65 11.5 12.9 10.05-8.6-6.5-15.75 12.2 9.3 11.2-7q-2.4-10.55-24.1-23.1 4.65 1.6 12.2 3.25 15.05 3.2 29.4 3.2 16.7 0 24.6-10.4 7.4-9.8 6.25-27.65-.9-14.35-7.35-22.25-2.05-2.45-4.35-3.95l-1.95-1.05 16.5-40.15q5.45-13.2 1.55-42.8-1.5-11-6.55-34.7-1.75-8.2-18.75-32.25z" id="c"/><path d="M12.25 32.6l-5.8 2.7q-6.6 3.55-10.65 8.05-4.05 4.5-7.45 18.85-1.7 7.2-2.6 13.45 0 4.15 3.15 3.55.35-.05 6.9-2.85 1.95-.85 6.45-8.15 4.2-6.85 8.6-7.65 4.65-.85 6.8 3.3.65 1.25 1.85 4.05 1.25 2.6 2.8 4.15 3.15 3.15 7.3 5.1l3.5 1.35q-1.1-3.2-2.35-7.6-2.5-8.8-3.4-14.65-.85-5.85-8.75-17.5l-6.35-6.15M53.8-86.55q-4.85.2-10.85 5.2Q36.9-76.4 32.7-68.1q-11.75 23.15-6.2 45Q31.85-2.05 38.3 6.4q3.2 4.15 13.9 11.4-7.2 1.8-19.95-7.2l2.45 3.15q3.25 3.75 7.05 6.9 12.2 10.05 26.75 10.8t26.8-1.35q12.25-2.1 20.8-15.2-9.6 10.2-20.05 4.3 13.35-4.2 15.1-25.8 4.4-.35 7.3 5.15-4.25-12.5-5.75-24.8t-9.3-29.15q-7.8-16.85-21.45-23.1-13.65-6.3-18.45-7.3-4.85-1-9.7-.75M-110.4-42q-5.85 7.65-12.45 27.55-3.05 9.25-3.9 18.4 3.2-7.2 9.9-7.95-4.1 26.55 17.95 31.55l-18.65 4.3q8.15.9 18.65 2.25 10.5 1.35 30.25 1.35T-36.7 25.4q3.8-3.15 7.05-6.9l2.45-3.15-12.75 3.6q3.5-3.65 6.7-7.8 6.45-8.45 11.8-29.5 5.55-21.85-6.2-45-4.2-8.3-9.8-15.1-4.75-5.7-7.65-7.3-4.5-2.45-11.05-.35-4.8 1.55-16.95 8.2-16.85 9.2-37.3 35.9z" id="d"/><path fill="#F3BA2F" d="M-56.25-.1l-23.5-23.5-23.3 23.3 23.5 23.5 23.3-23.3M.15 23.1L23.5-.25-.2-23.95-23.55-.6.15 23.1M63.1 39.35l-22.8-22.8L.4 56.45-39.05 17l-23 23L.2 102.25l62.9-62.9M56.25.6l22.8 22.8L102.35.1l-22.8-22.8L56.25.6M40.1-16.85l23-23L.85-102.1l-62.9 62.9 21.9 21.9 39.9-39.9L40.1-16.85z" id="e"/><path id="b" stroke="#000" stroke-width="30" stroke-linejoin="round" stroke-linecap="round" fill="none" d="M278.1-54.4q0 116.5-82.35 198.85T-3.1 226.8q-116.5 0-198.85-82.35T-284.3-54.4q0-116.5 82.35-198.85T-3.1-335.6q116.5 0 198.85 82.35T278.1-54.4z"/><g id="a"><path fill="#F3BA2F" d="M278.1-54.4q0-116.5-82.35-198.85T-3.1-335.6q-116.5 0-198.85 82.35T-284.3-54.4q0 116.5 82.35 198.85T-3.1 226.8q116.5 0 198.85-82.35T278.1-54.4m-95.8-187.55q-.2-.2-.4-.35-4.8-4.75-9.35-9.15 4.894 4.494 9.55 9.3.1.05.2.2m-129.9-58.2q48.15 16.7 100.35 50.8 52.15 34.05 83.8 98.55 31.7 64.5 4.6 168.7-27.15 104.2-121 153.8Q26.25 221.25-65.8 194q-92.05-27.25-161.25-115.85-10.4-16.35-17.55-34-26-80.35 17.55-190.7 43.55-110.4 137.4-140.35Q4.2-316.85 52.4-300.15z"/><path fill="#8B9ACE" d="M-227.05 78.15q-4-6.65-7.7-13.6-5.4-10.15-9.85-20.4 7.15 17.65 17.55 34M181.9-242.3q.094.047.2.15-4.656-4.806-9.55-9.3 4.55 4.4 9.35 9.15z"/><path fill="#F3DCA4" d="M152.75-249.35q-52.2-34.1-100.35-50.8-48.2-16.7-142.05 13.25-93.85 29.95-137.4 140.35Q-270.6-36.2-244.6 44.15q4.45 10.25 9.85 20.4 3.7 6.95 7.7 13.6 69.2 88.6 161.25 115.85t185.95-22.3q93.85-49.6 121-153.8 27.1-104.2-4.6-168.7-31.65-64.5-83.8-98.55m-84.3-29.5q79.3 30.95 132.65 121.9 53.3 90.9 10.95 182.15-42.35 91.25-129.5 131.7-87.2 40.4-175.15 6.2-88-34.25-122.75-117.3-34.8-83.1 11.15-176.5 45.9-93.45 119.6-136.3 73.7-42.85 153.05-11.85z"/><path d="M201.1-156.95q-53.35-90.95-132.65-121.9-79.35-31-153.05 11.85-73.7 42.85-119.6 136.3-45.95 93.4-11.15 176.5 34.75 83.05 122.75 117.3 87.95 34.2 175.15-6.2 87.15-40.45 129.5-131.7 42.35-91.25-10.95-182.15z"/><path fill="#3956BD" d="M181.9-242.3q.2.15.4.35-.1-.15-.2-.2-.106-.103-.2-.15z"/></g></defs><g transform="translate(282.75 331.5) scale(.91461)"><use xlink:href="#a"/><use xlink:href="#b"/></g><use xlink:href="#c" transform="translate(282.75 331.5) scale(.91461)"/><use xlink:href="#d" transform="translate(282.75 331.5) scale(.91461)"/><use xlink:href="#e" transform="translate(279.366 186.58) scale(.50495)"/></svg>

<svg xmlns="http://www.w3.org/2000/svg" version="1.1" xmlns:xlink="http://www.w3.org/1999/xlink" preserveAspectRatio="none" x="0px" y="0px" width="563px" height="563px" viewBox="0 0 563 563">
<defs>
<g id="Symbol_1_0_Layer4_0_FILL">
<path fill="#F3BA2F" stroke="none" d="
M 278.1 -54.4
Q 278.1 -170.9 195.75 -253.25 113.4 -335.6 -3.1 -335.6 -119.6 -335.6 -201.95 -253.25 -284.3 -170.9 -284.3 -54.4 -284.3 62.1 -201.95 144.45 -119.6 226.8 -3.1 226.8 113.4 226.8 195.75 144.45 278.1 62.1 278.1 -54.4
M 182.3 -241.95
Q 182.1 -242.15 181.9 -242.3 177.1 -247.05 172.55 -251.45 177.4435546875 -246.955859375 182.1 -242.15 182.2 -242.1 182.3 -241.95
M 52.4 -300.15
Q 100.55 -283.45 152.75 -249.35 204.9 -215.3 236.55 -150.8 268.25 -86.3 241.15 17.9 214 122.1 120.15 171.7 26.25 221.25 -65.8 194 -157.85 166.75 -227.05 78.15 -237.45 61.8 -244.6 44.15 -270.6 -36.2 -227.05 -146.55 -183.5 -256.95 -89.65 -286.9 4.2 -316.85 52.4 -300.15 Z"/>

<path fill="#8B9ACE" stroke="none" d="
M -227.05 78.15
Q -231.05 71.5 -234.75 64.55 -240.15 54.4 -244.6 44.15 -237.45 61.8 -227.05 78.15
M 181.9 -242.3
Q 181.99375 -242.253125 182.1 -242.15 177.4435546875 -246.955859375 172.55 -251.45 177.1 -247.05 181.9 -242.3 Z"/>

<path fill="#F3DCA4" stroke="none" d="
M 152.75 -249.35
Q 100.55 -283.45 52.4 -300.15 4.2 -316.85 -89.65 -286.9 -183.5 -256.95 -227.05 -146.55 -270.6 -36.2 -244.6 44.15 -240.15 54.4 -234.75 64.55 -231.05 71.5 -227.05 78.15 -157.85 166.75 -65.8 194 26.25 221.25 120.15 171.7 214 122.1 241.15 17.9 268.25 -86.3 236.55 -150.8 204.9 -215.3 152.75 -249.35
M 68.45 -278.85
Q 147.75 -247.9 201.1 -156.95 254.4 -66.05 212.05 25.2 169.7 116.45 82.55 156.9 -4.65 197.3 -92.6 163.1 -180.6 128.85 -215.35 45.8 -250.15 -37.3 -204.2 -130.7 -158.3 -224.15 -84.6 -267 -10.9 -309.85 68.45 -278.85 Z"/>

<path fill="#000000" stroke="none" d="
M 201.1 -156.95
Q 147.75 -247.9 68.45 -278.85 -10.9 -309.85 -84.6 -267 -158.3 -224.15 -204.2 -130.7 -250.15 -37.3 -215.35 45.8 -180.6 128.85 -92.6 163.1 -4.65 197.3 82.55 156.9 169.7 116.45 212.05 25.2 254.4 -66.05 201.1 -156.95 Z"/>

<path fill="#3956BD" stroke="none" d="
M 181.9 -242.3
Q 182.1 -242.15 182.3 -241.95 182.2 -242.1 182.1 -242.15 181.99375 -242.253125 181.9 -242.3 Z"/>
</g>

<g id="Symbol_1_0_Layer3_0_FILL">
<path fill="#FCFCFB" stroke="none" d="
M 129.1 -130.95
Q 110.1 -157.9 82.4 -196.5 54.65 -235.15 33.45 -243.75 12.25 -252.35 -4.5 -255.65 -21.3 -259 -41.85 -245.65 -48.65 -241.25 -56.95 -234.7 -61.35 -231.2 -67.35 -226.35 -72.95 -222.05 -104.3 -188.8 -141 -149.85 -141.25 -149.6 -147.1 -143.75 -158.4 -116.3 -164 -102.6 -168.5 -90.05 -177.3 -68.25 -166.35 -25.95 -162.45 -10.9 -156.8 3.65 -152.05 15.85 -149.15 20.4 -145.1 26.7 -142.05 24.85 -141.1 24.3 -140.35 23
L -139.8 21.8 -139.95 24.6
Q -141.05 28.05 -145.55 31.15 -152.45 35.95 -155.6 42.25 -159.9 50.9 -157 62 -155.05 69.45 -153.75 72.65 -151.75 77.35 -148.55 80.3 -141.9 86.45 -121.85 89.95 -103.9 93.1 -78.1 87.2 -70 85.35 -62.15 82.8
L -55.85 80.65 -58.75 83.6
Q -63.1 87 -69.95 89.95 -76.85 92.85 -101.05 105.05
L -92.85 110.3 -93.15 117.95 -77.4 109.35 -84.55 124.4
Q -64.75 121.15 -61.6 134.45
L -52.3 117.25 -52.3 136.6 -33.65 143.05 -24.3 121.55 -22.85 143.05
Q -8.5 131.85 7.8 142.9
L 15.85 121.55 18.75 142.35 41.7 138.05 43.85 116.5 51 135.9 66.1 128.7 63.2 110.05 74.7 122.95 84.75 114.35 78.25 98.6 90.45 107.9 101.65 100.9
Q 99.25 90.35 77.55 77.8 82.2 79.4 89.75 81.05 104.8 84.25 119.15 84.25 135.85 84.25 143.75 73.85 151.15 64.05 150 46.2 149.1 31.85 142.65 23.95 140.6 21.5 138.3 20
L 136.35 18.95 152.85 -21.2
Q 158.3 -34.4 154.4 -64 152.9 -75 147.85 -98.7 146.1 -106.9 129.1 -130.95 Z"/>
</g>

<g id="Symbol_1_0_Layer2_0_FILL">
<path fill="#000000" stroke="none" d="
M 12.25 32.6
L 6.45 35.3
Q -0.15 38.85 -4.2 43.35 -8.25 47.85 -11.65 62.2 -13.35 69.4 -14.25 75.65 -14.25 79.8 -11.1 79.2 -10.75 79.15 -4.2 76.35 -2.25 75.5 2.25 68.2 6.45 61.35 10.85 60.55 15.5 59.7 17.65 63.85 18.3 65.1 19.5 67.9 20.75 70.5 22.3 72.05 25.45 75.2 29.6 77.15
L 33.1 78.5
Q 32 75.3 30.75 70.9 28.25 62.1 27.35 56.25 26.5 50.4 18.6 38.75
L 12.25 32.6
M 53.8 -86.55
Q 48.95 -86.35 42.95 -81.35 36.9 -76.4 32.7 -68.1 20.95 -44.95 26.5 -23.1 31.85 -2.05 38.3 6.4 41.5 10.55 52.2 17.8 45 19.6 32.25 10.6
L 34.7 13.75
Q 37.95 17.5 41.75 20.65 53.95 30.7 68.5 31.45 83.05 32.2 95.3 30.1 107.55 28 116.1 14.9 106.5 25.1 96.05 19.2 109.4 15 111.15 -6.6 115.55 -6.95 118.45 -1.45 114.2 -13.95 112.7 -26.25 111.2 -38.55 103.4 -55.4 95.6 -72.25 81.95 -78.5 68.3 -84.8 63.5 -85.8 58.65 -86.8 53.8 -86.55
M -110.4 -42
Q -116.25 -34.35 -122.85 -14.45 -125.9 -5.2 -126.75 3.95 -123.55 -3.25 -116.85 -4 -120.95 22.55 -98.9 27.55
L -117.55 31.85
Q -109.4 32.75 -98.9 34.1 -88.4 35.45 -68.65 35.45 -48.9 35.45 -36.7 25.4 -32.9 22.25 -29.65 18.5
L -27.2 15.35 -39.95 18.95
Q -36.45 15.3 -33.25 11.15 -26.8 2.7 -21.45 -18.35 -15.9 -40.2 -27.65 -63.35 -31.85 -71.65 -37.45 -78.45 -42.2 -84.15 -45.1 -85.75 -49.6 -88.2 -56.15 -86.1 -60.95 -84.55 -73.1 -77.9 -89.95 -68.7 -110.4 -42 Z"/>
</g>

<g id="binance_0_Layer0_0_FILL">
<path fill="#F3BA2F" stroke="none" d="
M -56.25 -0.1
L -79.75 -23.6 -103.05 -0.3 -79.55 23.2 -56.25 -0.1
M 0.15 23.1
L 23.5 -0.25 -0.2 -23.95 -23.55 -0.6 0.15 23.1
M 63.1 39.35
L 40.3 16.55 0.4 56.45 -39.05 17 -62.05 40 0.2 102.25 63.1 39.35
M 56.25 0.6
L 79.05 23.4 102.35 0.1 79.55 -22.7 56.25 0.6
M 40.1 -16.85
L 63.1 -39.85 0.85 -102.1 -62.05 -39.2 -40.15 -17.3 -0.25 -57.2 40.1 -16.85 Z"/>
</g>

<path id="Symbol_1_0_Layer4_0_1_STROKES" stroke="#000000" stroke-width="30" stroke-linejoin="round" stroke-linecap="round" fill="none" d="
M 278.1 -54.4
Q 278.1 62.1 195.75 144.45 113.4 226.8 -3.1 226.8 -119.6 226.8 -201.95 144.45 -284.3 62.1 -284.3 -54.4 -284.3 -170.9 -201.95 -253.25 -119.6 -335.6 -3.1 -335.6 113.4 -335.6 195.75 -253.25 278.1 -170.9 278.1 -54.4 Z"/>
</defs>

<g transform="matrix( 0.91461181640625, 0, 0, 0.91461181640625, 282.75,331.5) ">
<g transform="matrix( 1, 0, 0, 1, 0,0) ">
<use xlink:href="#Symbol_1_0_Layer4_0_FILL"/>

<use xlink:href="#Symbol_1_0_Layer4_0_1_STROKES"/>
</g>

<g transform="matrix( 1, 0, 0, 1, 0,0) ">
<use xlink:href="#Symbol_1_0_Layer3_0_FILL"/>
</g>

<g transform="matrix( 1, 0, 0, 1, 0,0) ">
<use xlink:href="#Symbol_1_0_Layer2_0_FILL"/>
</g>

<g transform="matrix( 0.552093505859375, 0, 0, 0.552093505859375, -3.7,-158.45) ">
<g transform="matrix( 1, 0, 0, 1, 0,0) ">
<use xlink:href="#binance_0_Layer0_0_FILL"/>
</g>
</g>
</g>
</svg>
